src/assets/images/refund.svg

<svg width="52" height="52" viewBox="0 0 52 52" fill="none" xmlns="http://www.w3.org/2000/svg">
<path d="M27.3042 0C13.8768 0 2.9292 10.9472 2.9292 24.375C2.9292 25.1447 2.9292 25.8291 3.01481 26.5988L4.72534 26.4275C4.63973 25.7435 4.63973 25.059 4.63973 24.375C4.63973 11.8881 14.8173 1.71053 27.3042 1.71053C39.7911 1.71053 49.9687 11.8881 49.9687 24.375C49.9687 36.6051 40.3044 46.6118 28.1595 47.0395L30.0412 45.1577L28.8439 43.9604L24.824 47.9803L28.8439 51.9998L30.0412 50.8025L27.9887 48.75C41.5017 48.3224 52.1068 37.1183 51.6792 23.691C51.2516 10.5196 40.4752 0 27.3042 0Z" fill="url(#paint0_linear)"/>
<path d="M43.1266 10.2632H12.3371V25.6579H43.1266V10.2632ZM41.416 23.9474H14.0476V11.9737H41.416V23.9474Z" fill="url(#paint1_linear)"/>
<path d="M27.7318 21.3815C29.6136 21.3815 31.1529 19.8422 31.1529 17.9605C31.1529 16.0787 29.6136 14.5394 27.7318 14.5394C25.8505 14.5394 24.3108 16.0787 24.3108 17.9605C24.3108 19.8422 25.8505 21.3815 27.7318 21.3815ZM27.7318 16.25C28.6727 16.25 29.4424 17.0196 29.4424 17.9605C29.4424 18.9014 28.6727 19.671 27.7318 19.671C26.791 19.671 26.0213 18.9014 26.0213 17.9605C26.0213 17.0196 26.791 16.25 27.7318 16.25Z" fill="url(#paint2_linear)"/>
<path d="M17.4686 15.3947H19.1792V13.6842H15.7581V17.1052H17.4686V15.3947Z" fill="url(#paint3_linear)"/>
<path d="M19.1792 20.5263H17.4686V18.8158H15.7581V22.2369H19.1792V20.5263Z" fill="url(#paint4_linear)"/>
<path d="M39.7055 18.8158H37.995V20.5263H36.2845V22.2369H39.7055V18.8158Z" fill="url(#paint5_linear)"/>
<path d="M37.995 17.1052H39.7055V13.6842H36.2845V15.3947H37.995V17.1052Z" fill="url(#paint6_linear)"/>
<path d="M20.0344 17.1052H22.6002V18.8158H20.0344V17.1052Z" fill="url(#paint7_linear)"/>
<path d="M32.8634 17.1052H35.4292V18.8158H32.8634V17.1052Z" fill="url(#paint8_linear)"/>
<path d="M5.495 36.7764H7.20552V39.3422H5.495V36.7764Z" fill="url(#paint9_linear)"/>
<path d="M43.1266 34.9802C43.1266 33.2697 41.6729 31.816 39.9624 31.816C39.7056 31.816 39.3635 31.816 39.1071 31.9012L28.7584 34.8946C28.6728 34.8946 28.5015 34.9802 28.4163 34.8946L26.0214 34.467C27.6463 33.5265 28.2451 31.4735 27.3899 29.8486C26.791 28.737 25.6793 28.0525 24.3964 28.0525H13.62C13.1924 28.0525 12.7648 28.1381 12.3371 28.3949L10.6266 29.5066V28.2237H0.363464V42.7632H10.6266V40.625L19.0936 44.1317C19.6069 44.3881 20.2913 44.3881 20.8042 44.2173L40.8177 37.9736C42.1857 37.6316 43.1266 36.4343 43.1266 34.9802ZM8.9161 41.0527H2.07399V29.9342H5.49504V35.0658H7.20557V29.9342H8.9161V41.0527ZM20.3765 42.592C20.2057 42.6776 19.9489 42.6776 19.7781 42.592L10.6266 38.7433V31.4735L13.1924 30.0198C13.278 29.9342 13.4492 29.9342 13.62 29.9342H24.3108C25.2517 29.9342 26.0214 30.7039 26.0214 31.6448C26.0214 32.5856 25.2517 33.3553 24.3108 33.3553H18.324V34.2106L18.1532 35.0658L27.9887 36.6907C28.3307 36.7763 28.7584 36.6907 29.1004 36.6051L39.4492 33.6117C40.2188 33.3553 40.9885 33.8685 41.2453 34.6382C41.5017 35.4078 41.0741 36.1775 40.3044 36.4343L20.3765 42.592Z" fill="url(#paint10_linear)"/>
<defs>
<linearGradient id="paint0_linear" x1="4.32241" y1="25.9999" x2="51.6917" y2="25.9999" gradientUnits="userSpaceOnUse">
<stop stop-color="#015AAD"/>
<stop offset="1" stop-color="#00B74F"/>
</linearGradient>
<linearGradient id="paint1_linear" x1="13.2168" y1="17.9606" x2="43.1266" y2="17.9606" gradientUnits="userSpaceOnUse">
<stop stop-color="#015AAD"/>
<stop offset="1" stop-color="#00B74F"/>
</linearGradient>
<linearGradient id="paint2_linear" x1="24.5063" y1="17.9605" x2="31.1529" y2="17.9605" gradientUnits="userSpaceOnUse">
<stop stop-color="#015AAD"/>
<stop offset="1" stop-color="#00B74F"/>
</linearGradient>
<linearGradient id="paint3_linear" x1="15.8559" y1="15.3947" x2="19.1792" y2="15.3947" gradientUnits="userSpaceOnUse">
<stop stop-color="#015AAD"/>
<stop offset="1" stop-color="#00B74F"/>
</linearGradient>
<linearGradient id="paint4_linear" x1="15.8559" y1="20.5263" x2="19.1792" y2="20.5263" gradientUnits="userSpaceOnUse">
<stop stop-color="#015AAD"/>
<stop offset="1" stop-color="#00B74F"/>
</linearGradient>
<linearGradient id="paint5_linear" x1="36.3822" y1="20.5263" x2="39.7055" y2="20.5263" gradientUnits="userSpaceOnUse">
<stop stop-color="#015AAD"/>
<stop offset="1" stop-color="#00B74F"/>
</linearGradient>
<linearGradient id="paint6_linear" x1="36.3822" y1="15.3947" x2="39.7055" y2="15.3947" gradientUnits="userSpaceOnUse">
<stop stop-color="#015AAD"/>
<stop offset="1" stop-color="#00B74F"/>
</linearGradient>
<linearGradient id="paint7_linear" x1="20.1077" y1="17.9605" x2="22.6002" y2="17.9605" gradientUnits="userSpaceOnUse">
<stop stop-color="#015AAD"/>
<stop offset="1" stop-color="#00B74F"/>
</linearGradient>
<linearGradient id="paint8_linear" x1="32.9367" y1="17.9605" x2="35.4292" y2="17.9605" gradientUnits="userSpaceOnUse">
<stop stop-color="#015AAD"/>
<stop offset="1" stop-color="#00B74F"/>
</linearGradient>
<linearGradient id="paint9_linear" x1="5.54387" y1="38.0593" x2="7.20552" y2="38.0593" gradientUnits="userSpaceOnUse">
<stop stop-color="#015AAD"/>
<stop offset="1" stop-color="#00B74F"/>
</linearGradient>
<linearGradient id="paint10_linear" x1="1.58527" y1="36.1944" x2="43.1266" y2="36.1944" gradientUnits="userSpaceOnUse">
<stop stop-color="#015AAD"/>
<stop offset="1" stop-color="#00B74F"/>
</linearGradient>
</defs>
</svg>

<svg width="52" height="52" fill="none" xmlns="http://www.w3.org/2000/svg"><path d="M27.304 0C13.877 0 2.93 10.947 2.93 24.375c0 .77 0 1.454.086 2.224l1.71-.172c-.085-.683-.085-1.368-.085-2.052 0-12.487 10.177-22.664 22.664-22.664 12.487 0 22.665 10.177 22.665 22.664 0 12.23-9.665 22.237-21.81 22.664l1.882-1.881-1.197-1.198-4.02 4.02 4.02 4.02 1.197-1.197-2.052-2.053c13.513-.428 24.118-11.632 23.69-25.059C51.252 10.52 40.475 0 27.304 0z" fill="url(#paint0_linear)"/><path d="M43.127 10.263h-30.79v15.395h30.79V10.263zm-1.711 13.684H14.048V11.974h27.368v11.973z" fill="url(#paint1_linear)"/><path d="M27.732 21.381a3.43 3.43 0 003.42-3.42 3.43 3.43 0 00-3.42-3.422 3.431 3.431 0 00-3.421 3.421 3.431 3.431 0 003.42 3.421zm0-5.131c.94 0 1.71.77 1.71 1.71 0 .941-.77 1.711-1.71 1.711-.941 0-1.71-.77-1.71-1.71 0-.941.769-1.711 1.71-1.711z" fill="url(#paint2_linear)"/><path d="M17.469 15.395h1.71v-1.71h-3.42v3.42h1.71v-1.71z" fill="url(#paint3_linear)"/><path d="M19.18 20.526h-1.711v-1.71h-1.71v3.42h3.42v-1.71z" fill="url(#paint4_linear)"/><path d="M39.706 18.816h-1.711v1.71h-1.71v1.71h3.42v-3.42z" fill="url(#paint5_linear)"/><path d="M37.995 17.105h1.71v-3.42h-3.42v1.71h1.71v1.71z" fill="url(#paint6_linear)"/><path d="M20.034 17.105H22.6v1.71h-2.566v-1.71z" fill="url(#paint7_linear)"/><path d="M32.863 17.105h2.566v1.71h-2.566v-1.71z" fill="url(#paint8_linear)"/><path d="M5.495 36.776h1.71v2.566h-1.71v-2.566z" fill="url(#paint9_linear)"/><path d="M43.127 34.98c0-1.71-1.454-3.164-3.165-3.164-.256 0-.599 0-.855.085l-10.349 2.994c-.085 0-.256.085-.342 0l-2.395-.428c1.625-.94 2.224-2.993 1.369-4.618a3.357 3.357 0 00-2.994-1.797H13.62c-.428 0-.855.086-1.283.343l-1.71 1.112v-1.283H.363v14.54h10.264v-2.139l8.467 3.507c.513.256 1.197.256 1.71.085l20.014-6.243c1.368-.342 2.309-1.54 2.309-2.994zm-34.21 6.073H2.073V29.934h3.421v5.132h1.71v-5.132h1.711v11.119zm11.46 1.539a.73.73 0 01-.599 0l-9.151-3.849v-7.27l2.565-1.453c.086-.086.257-.086.428-.086h10.69c.942 0 1.711.77 1.711 1.71 0 .942-.77 1.711-1.71 1.711h-5.987v.856l-.17.855 9.835 1.625c.342.085.77 0 1.111-.086l10.35-2.993c.769-.257 1.538.256 1.795 1.026.257.77-.17 1.54-.94 1.796l-19.928 6.158z" fill="url(#paint10_linear)"/><defs><linearGradient id="paint1_linear" x1="13.217" y1="17.961" x2="43.127" y2="17.961" gradientUnits="userSpaceOnUse"><stop stop-color="#015AAD"/><stop offset="1" stop-color="#00B74F"/></linearGradient><linearGradient id="paint5_linear" x1="36.382" y1="20.526" x2="39.706" y2="20.526" gradientUnits="userSpaceOnUse"><stop stop-color="#015AAD"/><stop offset="1" stop-color="#00B74F"/></linearGradient><linearGradient id="paint2_linear" x1="24.506" y1="17.96" x2="31.153" y2="17.96" gradientUnits="userSpaceOnUse"><stop stop-color="#015AAD"/><stop offset="1" stop-color="#00B74F"/></linearGradient><linearGradient id="paint3_linear" x1="15.856" y1="15.395" x2="19.179" y2="15.395" gradientUnits="userSpaceOnUse"><stop stop-color="#015AAD"/><stop offset="1" stop-color="#00B74F"/></linearGradient><linearGradient id="paint4_linear" x1="15.856" y1="20.526" x2="19.179" y2="20.526" gradientUnits="userSpaceOnUse"><stop stop-color="#015AAD"/><stop offset="1" stop-color="#00B74F"/></linearGradient><linearGradient id="paint0_linear" x1="4.322" y1="26" x2="51.692" y2="26" gradientUnits="userSpaceOnUse"><stop stop-color="#015AAD"/><stop offset="1" stop-color="#00B74F"/></linearGradient><linearGradient id="paint6_linear" x1="36.382" y1="15.395" x2="39.706" y2="15.395" gradientUnits="userSpaceOnUse"><stop stop-color="#015AAD"/><stop offset="1" stop-color="#00B74F"/></linearGradient><linearGradient id="paint7_linear" x1="20.108" y1="17.96" x2="22.6" y2="17.96" gradientUnits="userSpaceOnUse"><stop stop-color="#015AAD"/><stop offset="1" stop-color="#00B74F"/></linearGradient><linearGradient id="paint8_linear" x1="32.937" y1="17.96" x2="35.429" y2="17.96" gradientUnits="userSpaceOnUse"><stop stop-color="#015AAD"/><stop offset="1" stop-color="#00B74F"/></linearGradient><linearGradient id="paint9_linear" x1="5.544" y1="38.059" x2="7.206" y2="38.059" gradientUnits="userSpaceOnUse"><stop stop-color="#015AAD"/><stop offset="1" stop-color="#00B74F"/></linearGradient><linearGradient id="paint10_linear" x1="1.585" y1="36.194" x2="43.127" y2="36.194" gradientUnits="userSpaceOnUse"><stop stop-color="#015AAD"/><stop offset="1" stop-color="#00B74F"/></linearGradient></defs></svg>
